!!!OTL: Mit Gott, fuer Koenig und Vaterland.
!!!OTL-incipit: ES KLINGT EIN RUF IM MAECHTGEN DONNERTONE
!!!COM: H. A. Neithardt
!!!ARE: Europa, Mitteleuropa, Deutschland
!!!SCT: F0417
!!!TXL: @@DE
!!!YEM: Copyright 1995, estate of Helmut Schaffrath.
**kern	**text
*ICvox	*
*M4/4	*
*met(c)	*
*k[f#c#g#]	*
*A:	*
!LO:TX:a:t=Kräftig.	!
{8e	1._Es
8e	klingt
8e	ein
=1	=1
4.cc#/	Ruf
8a	im
8.g#	mächt'gen
16a	.
8.b/	Donner-
16g#	.
=2	=2
4a	-to-
4e	-ne
8r}	.
{8e	Auf!
8f#	Deutſchland,
8e	.
=3	=3
4.dd/	auf!
8b/	vom
8.a	Nie-
16g#	-men
8.a	dis
16cc#/	ʒum
=4	=4
2b/	Rhein!
8r}	.
{8b/	Jäh
8a#	brauſt
8b/	ein
=5	=5
4.cc#/	Sturm
8b/	durch
8.b/	deiner
16a	.
8.g#	Ei-
16f#	-chen
=6	=6
4e	Kro-
4e	-ne,
8r}	.
{8g	ſchon
8f#	ʒuckt
8e	der
=7	=7
4.b/	Strahl
16g#L	im
16eJ	.
8.B	grel-
16a	-len
8.g#	Wet-
16f#	-ter-
=8	=8
2e	-ſchein!
4r}	.
{4e	Auf!
=9	=9
4.b/	Deutſchland,
8g#	.
4.a	auf!
8cc#/	wir
=10	=10
8bL	hö-
8g#J	.
4e	-ren's,
4r}	.
{4e	wir
=11	=11
4.b/	wol-
8g#	-len
4.a	ſein,
8ccn/	wir
=12	=12
4b/;	ſchwö-
4e	-ren's,
8r}	.
{8e	ein
8e	ei-
8e	-nig
=13	=13
4.a	Volk
8a	von
8.cc#/	Brü-
16b/	-dern
8a	Hand
8b/	in
=14	=14
2cc#/	Hand
8r}	.
{8cc#/	mit
8cc#/	Gott,
8cc#/	für
=15	=15
8.ee/	Kö-
16dd/	-nig
8cc#/	und
8b/	für's
4cc#/	Va-
4b/	-ter-
=16	=16
2a	-land!
8r;}	.
{8e	ein
8e	ei-
8e	-nig
=17	=17
4.a	Volk
8a	von
8.cc#/	Brü-
16b/	-dern
8a	Hand
8b/	in
=18	=18
2cc#/	Hand
8r}	.
{8cc#/	mit
8cc#/	Gott,
8cc#/	für
=19	=19
8.ee/	Kö-
16dd/	-nig
8cc#/	und
8b/	für's
4cc#/	Va-
4b/	-ter-
=20	=20
2a	-land!
8r;}	.
==	==
!!!AGN: Vaterlands -, Heimat - Lied, nationalistisch, Krieg
!!!ONB: ESAC (Essen Associative Code) Database: FINK
!!!AMT: simple quadruple
!!!AIN: vox
!!!EED: Helmut Schaffrath
!!!EEV: 1.0
!!Text: Reil
!!!GTL: Vaterlands- und Heimathslieder.
!!!source: Musikalischer Hausschatz der Deutschen. Eine Sammlung von über 1000 Liedern und Gesängen mit Singstimmen und Klavierbegleitung. Leipzig, Litterarisches Verlags-Haus.
!!!page: 256
!!!ENC: Anna Maria Matuszewska
!!!EEV: 2025/03/14
*-	*-
